icons/smiley-16.svg

<svg xmlns="http://www.w3.org/2000/svg" width="16" height="16" viewBox="0 0 16 16"><path fill-rule="evenodd" d="M1.5 8a6.5 6.5 0 1113 0 6.5 6.5 0 01-13 0zM8 0a8 8 0 100 16A8 8 0 008 0zM5 8a1 1 0 100-2 1 1 0 000 2zm7-1a1 1 0 11-2 0 1 1 0 012 0zM5.32 9.636a.75.75 0 011.038.175l.007.009c.103.118.22.222.35.31.264.178.683.37 1.285.37.602 0 1.02-.192 1.285-.371.13-.088.247-.192.35-.31l.007-.008a.75.75 0 111.222.87l-.614-.431c.614.43.614.431.613.431v.001l-.001.002-.002.003-.005.007-.014.019a1.984 1.984 0 01-.184.213c-.16.166-.338.316-.53.445-.63.418-1.37.638-2.127.629-.946 0-1.652-.308-2.126-.63a3.32 3.32 0 01-.715-.657l-.014-.02-.005-.006-.002-.003v-.002h-.001l.613-.432-.614.43a.75.75 0 01.183-1.044h.001z"/></svg>

<svg xmlns="http://www.w3.org/2000/svg" width="16" height="16" viewBox="0 0 16 16">
  <defs/>
  <path d="M8,0 C12.418,0 16,3.582 16,8 C16,12.418 12.418,16 8,16 C3.582,16 0,12.418 0,8 C0,3.582 3.582,0 8,0 Z M1.5,8 C1.5,11.59 4.41,14.5 8,14.5 C11.59,14.5 14.5,11.59 14.5,8 C14.5,4.41 11.59,1.5 8,1.5 C4.41,1.5 1.5,4.41 1.5,8 Z M5.32,9.636 C5.656,9.401 6.118,9.479 6.358,9.811 L6.365,9.82 C6.468,9.938 6.585,10.042 6.715,10.13 C6.979,10.308 7.398,10.5 8,10.5 C8.602,10.5 9.02,10.308 9.285,10.129 C9.415,10.041 9.532,9.937 9.635,9.819 L9.642,9.811 C9.882,9.474 10.351,9.395 10.688,9.635 C11.025,9.875 11.104,10.344 10.864,10.681 L10.842,10.666 C10.862,10.679 10.863,10.681 10.863,10.681 L10.863,10.681 L10.863,10.682 L10.862,10.684 L10.86,10.687 L10.855,10.694 L10.841,10.713 C10.785,10.788 10.723,10.859 10.657,10.926 C10.497,11.092 10.319,11.242 10.127,11.371 C9.497,11.789 8.757,12.009 8,12 C7.054,12 6.348,11.692 5.874,11.37 C5.605,11.187 5.364,10.966 5.159,10.713 L5.145,10.693 L5.14,10.687 L5.138,10.684 L5.138,10.682 L5.137,10.682 L5.75,10.25 L5.136,10.68 C4.899,10.341 4.98,9.874 5.319,9.636 Z M12,7 C12,7.552 11.552,8 11,8 C10.448,8 10,7.552 10,7 C10,6.448 10.448,6 11,6 C11.552,6 12,6.448 12,7 Z M5,8 C4.448,8 4,7.552 4,7 C4,6.448 4.448,6 5,6 C5.552,6 6,6.448 6,7 C6,7.552 5.552,8 5,8 Z M10.25,10.25 L10.842,10.666 C10.799,10.635 10.664,10.54 10.25,10.25 Z"/>
</svg>
